X:1
T:Silent Night
T:Silent Night (Stille Nacht)
%%score [ 1 2 3 4 ]
L:1/8
Q:1/4=80
M:3/4
K:F
V:1 treble nm="Flute"
V:2 treble nm="Oboe"
V:3 treble transpose=-2 nm="B♭ Clarinet"
V:4 bass nm="Bassoon"
V:1
!p! (c3 d) c2 | A6 | (c3 d) c2 | A6 | g4 g2 | e6 | f4 f2 | c6 | d4 d2 | (f3 e) d2 | (c3 d) c2 | %11
w: si- * lent|night,|ho- * ly|night.|all is|calm,|all is|bright.|'round yon|vi- * rgin|mo- ther and|
w: |||||||||||
 A6 | d4 d2 | (f3 e) d2 | (c3 d) c2 | A6 | g4 g2 | (b3 g) e2 | (f6 | a6) | (f2 c2) A2 | c3 B G2 | %22
w: child,|ho- ly|in- fant so|ten- der and|mild.|sleep in|heav- en- ly|peace,|_|sleep _ in|heav- en- ly|
w: |||||||||||
 F6- | F6 |!mp! (c3 d) c2 | A6 | (c3 d) c2 | A6 | g4 g2 | e6 | f4 f2 | c6 | d4 d2 | (f3 e) d2 | %34
w: peace.|_|si- * lent|night,|ho- * ly|night.|shep- herds|quake|at the|sight.|glor- ies|stream _ from|
w: ||||||||||||
 (c3 d) (c2 | A2 B2 c2) | d4 d2 | (f3 e) d2 | (c3 d c2 | A6) | g4 g2 | (b3 g) e2 | (f6 | a6) | %44
w: heav- en a-|far, _ _|heav- 'nly|hosts _ sing|al- le- lu-|ia.|christ the|sav- ior is|born,|_|
w: ||||||||||
 (f2 c2) A2 | (c3 B) G2 | F6- | F6 |!mf! ((c3 d)) c2 | A6 | (c3 d) c2 | A6 | g4 g2 | e6 | f4 f2 | %55
w: christ _ the|sav- ior is|born.|_|stil- * le|nacht,|heil- * 'ge|nacht.|gott- es|sohn,|o wie|
w: ||||shteal- * leh|nahcht,|heel- * geh|nahcht.|gohtt- ehs|sahn,|oh we|
 c6 | d4 d2 | f3 e d2 | c3 d c2 | A6 | d4 d2 | f3 e d2 | (c3 d) c2 | A6 | g4 g2 | b3 g e2 | f6 | %67
w: lacht.|lieb' aus|dei- nem gött-|li- * chen|mund,|da uns|schlägt die rett-|en- * de|stundt.|jes- us|in dei- ner|ge-|
w: lahcht.|leeb ows|die- nem get-|lee- * chin|moond,|dah oons|shlaygt dee rett|ehn- * day|shtoond.|jes- us|in die- ner|geh-|
 a6 | f2 c2 A2 | (c3 B) G2 | F6- | F6 |!f! (c3 d) c2 | A6 | (c3 d) c2 | A6 | g4 g2 | e6 | f4 f2 | %79
w: burt,|jes- us in|dei- ner ge-|burt.|_|si- * lent|night,|ho- * ly|night.|son of|god,|love's pure|
w: boort,|jes- us in|die- ner geh-|boort.|_||||||||
 c6 | d4 d2 | (f3 e) d2 | c3 (d c2) | A6 | d4 d2 | f3 e (d2 | c3 d c2) | A6 | g4 g2 | b3 g e2 | %90
w: light.|rad- iant|bea- ms from|thy ho- ly|face,|with the|dawn of re-|deem- * ing|grace.|jes- us|lord at thy|
w: |||||||||||
 (f6 | a6) | (f2 c2) A2 | c3 B G2 | F6- | F6 |] %96
w: birth,|_|je- * sus|lord at thy|birth.|_|
w: ||||||
V:2
!pp! (A3 B) A2 | F6 | (A3 B) A2 | F6 | e4 e2 | c6 | c4 c2 | A6 | B4 B2 | (d3 c) B2 | (A3 B) A2 | %11
w: si- * lent|night,|ho- * ly|night.|all is|calm,|all is|bright.|'round yon|vi- * rgin|mo- ther and|
w: |||||||||||
 F6 | B4 B2 | (d3 c) B2 | (A3 B) A2 | F6 | e4 e2 | (g3 e) c2 | c6- | c6 | (c2 A2) F2 | A3 G E2 | %22
w: child,|ho- ly|in- fant so|ten- der and|mild.|sleep in|heav- en- ly|peace,|_|sleep _ in|heav- en- ly|
w: |||||||||||
 C6- | C6 |!p! A6 | (A2 B2) A2 | F6 | (A2 B2) A2 | z2 c2 A2 | (G3 F E2) | z2 B2 B2 | (A3 B c2) | %32
w: peace.|_|oh,|si- * lent|night,|ho- * ly|shep- herds|quake _ _|at the|sight. _ _|
w: ||||||||||
 z2 B2 B2 | (d3 c) B2 | (A3 B) (A2 | F6) | z2 B2 Bc | (d3 c) B2 | A3 B A2 | (F2 G2 A2) | e4 e2 | %41
w: glor- ies|stream _ from|heav- en a-|far,|heav- 'nly _|ho- sts sing|al- le- lu-|ia. _ _|christ the|
w: |||||||||
 (g3 e) c2 | c6- | c6 | (c2 A2) F2 | (A3 G) E2 | C6- | C6 |!mp! F4 F2 | F6 | F4 F2 | (F2 G2 F2) | %52
w: sav- ior is|born,|_|christ _ the|sav- ior is|born.|_|stil- le|nacht,|heil- 'ge|nacht. _ _|
w: |||||||shteal- leh|nahcht,|heel- geh|nahcht. _ _|
 z2 c2 A2 | (G3 F E2) | z2 B2 B2 | (A3 B c2) | B4 B2 | B4 B2 | A3 B A2 | F6 | B4 B2 | B4 B2 | %62
w: gott- es|sohn, _ _|o wie|lacht. _ _|lieb' aus|dei gött-|li- * chen|mund,|da uns|schlägt rett-|
w: gohtt- ehs|sahn, _ _|oh we|lahcht. _ _|leeb ows|die gohtt-|lee- * chin|moond,|dah oons|shlaygt rett|
 (A3 B) A2 | F6 | c4 c2 | f4 f2 | c6- | c6 | c2 A2 F2 | (A3 G) E2 | C6- | C6 |!mf! (A3 B) A2 | F6 | %74
w: en- * de|stundt.|jes- us|dei- ner|ge-|burt,|jes- us in|dei- ner ge-|burt.|_|si- * lent|night,|
w: ehn- * day|shtoond.|jes- us|die- ner|geh-|boort,|jes- us in|die- ner geh-|boort.|_|||
 (A3 B) A2 | F6 | e4 e2 | c6 | c4 c2 | A6 | B4 B2 | (d3 c) B2 | A3 (B A2) | F6 | B4 B2 | d3 c (B2 | %86
w: ho- * ly|night.|son of|god,|love's pure|light.|rad- iant|bea- ms from|thy ho- ly|face.|with the|dawn of re-|
w: ||||||||||||
 A3 B A2) | F6 | e4 e2 | g3 e c2 | c6- | c6 | (c2 A2) F2 | A3 G E2 | C6- | C6 |] %96
w: deem- * ing|grace.|jes- us|lord at thy|birth,|_|jes- * us|lord at thy|birth.|_|
w: ||||||||||
V:3
!pp! (G,3 A,) G,2 | G,6 | (G,3 A,) G,2 | G,6 | D4 D2 | A,6 | =B,4 B,2 | G,6 | G,4 G,2 | %9
w: si- * lent|night,|ho- * ly|night.|all is|calm,|all is|bright.|'round yon|
w: |||||||||
 (C3 =B,) A,2 | (G,3 A,) G,2 | G,6 | G,4 G,2 | (C3 =B,) A,2 | (G,3 A,) G,2 | G,6 | D4 D2 | %17
w: vi- * rgin|mo- ther and|child,|ho- ly|in- fant so|ten- der and|mild.|sleep in|
w: ||||||||
 (A,3 ^F,) G,2 | =B,6 | =B,6 | (G,2 A,2) =B,2 | A,3 G, A,2 | =B,6- | B,6 |!p! (G,3 A,) G,2 | G,6 | %26
w: heav- en- ly|peace,|_|sleep _ in|heav- en- ly|peace.|_|si- * lent|night,|
w: |||||||||
 (G,3 A,) G,2 | G,6 | z2 D2 D2 | A,6 | z2 C2 C2 | (G,3 A, =B,2) | z2 G,2 G,2 | (C3 =B,) A,2 | %34
w: ho- * ly|night,|shep- herds|quake|at the|sight. _ _|glor- ies|stream _ from|
w: ||||||||
 (G,3 A,) (G,2 | G,6) | z2 G,2 G,2 | (C3 =B,) A,2 | G,2 A,2 G,2 | G,6 | D4 D2 | (A,3 ^F,) G,2 | %42
w: heav- en a-|far,|heav- 'nly|ho- sts sing|al- le- lu-|ia.|christ the|sav- ior is|
w: ||||||||
 =B,6- | B,6 | (G,2 A,2) =B,2 | (A,3 G,) A,2 | =B,6- | B,6 |!mp! z6 | (=B,2 C2) B,2 | G,6 | %51
w: born,|_|christ _ the|sav- ior is|born.|_||stil- * le|nacht,|
w: |||||||shteal _ leh|nahcht,|
 (=B,2 C2) B,2 | A,6 | A,2 G,2 ^F,2 | G,6 | (D,2 E,2) ^F,2 | G,6 | G,2 A,2 =B,2 | =B,4 A,2 | G,6 | %60
w: heil- * 'ge|nacht.|gott- * es|sohn,|o _ wie|lacht,|lieb' aus gött-|li- chen|mund,|
w: heel- * geh|nahcht.|gohtt- * ehs|sahn,|oh _ we|lahcht,|leeb ows gohtt-|lee- chin|moond.|
 z2 E,2 (^F,G,) | (C2 =B,2) A,2 | G,2 G,2 G,2 | G,6 | z2 D2 D2 | E3 D =B,2 | =B,6- | B,6 | D4 D2 | %69
w: da uns _|schlägt _ die|rett- en- de|stundt.|jes- us|in dei- ner|ge-|burt,|jes- us|
w: dah oons _|shlaygt _ dee|rett- ehn- day|shtoond.|jes- us|in die- ner|geh-|boort,|jes- us|
 C2 C2 C2 | =B,6- | B,6 |!mf! (G,3 A,) G,2 | G,6 | (G,3 A,) G,2 | G,6 | D4 D2 | A,6 | =B,4 B,2 | %79
w: dei- ner ge-|burt.|_|si- * lent|night,|ho- * ly|night.|son of|god,|love's pure|
w: die- ner geh-|boort.|_||||||||
 G,6 | G,4 G,2 | (C3 =B,) A,2 | G,3 (A, G,2) | G,6 | G,4 G,2 | C3 =B, (A,2 | G,3 A, G,2) | G,6 | %88
w: light.|rad- iant|bea- ms from|thy ho- ly|face.|with the|dawn of re-|deem- * ing|grace.|
w: |||||||||
 D4 D2 | A,3 ^F, G,2 | =B,6- | B,6 | (G,2 A,2) =B,2 | A,3 G, A,2 | =B,6- | B,6 |] %96
w: jes- us|lord at thy|birth,|_|je- * sus|lord at thy|birth.|_|
w: ||||||||
V:4
!pp! F,,4 F,,2 | F,,6 | F,,4 F,,2 | F,,6 | C,4 C,2 | C,6 | F,,4 F,,2 | F,,6 | D,4 D,2 | %9
w: si- lent|night,|ho- ly|night.|all is|calm,|all is|bright.|'round yon|
w: |||||||||
 (F,3 E,) D,2 | (C,3 D,) C,2 | A,,6 | D,4 D,2 | (F,3 E,) D,2 | (C,3 D,) C,2 | A,,6 | G,4 G,2 | %17
w: vi- * rgin|mo- ther and|child,|ho- ly|in- fant so|ten- der and|mild.|sleep in|
w: ||||||||
 (B,3 G,) E,2 | F,6- | F,6 | (F,2 C,2) A,,2 | C,3 B,, G,,2 | F,,6- | F,,6 |!p! F,,4 F,,2 | F,,6 | %26
w: heav- en- ly|peace,|_|sleep _ in|heav- en- ly|peace.|_|si- lent|night,|
w: |||||||||
 F,,4 F,,2 | F,,6 | z2 C,2 C,2 | C,6 | z2 F,,2 F,,2 | F,,6 | z2 B,,2 B,,2 | B,,4 B,,2 | %34
w: ho- ly|night.|shep- herds|quake|at the|sight.|glor- ies|stream from|
w: ||||||||
 F,,2 F,,2 F,,2 | F,,6 | z2 B,,2 B,,2 | B,,4 B,,2 | F,,2 F,,2 F,,2 | F,,6 | G,4 G,2 | %41
w: heav- en a-|far,|heav- 'nly|hosts sing|al- le- lu-|ia.|christ the|
w: |||||||
 (B,3 G,) E,2 | F,6- | F,6 | (F,2 C,2) A,,2 | (C,3 B,,) G,,2 | F,,6 | (A,,2 B,,2) C,2 |!mp! F,,6 | %49
w: sav- ior is|born,|_|christ _ the|sav- ior is|born.|si- * lent|stil-|
w: |||||||shteal-|
 F,,6 | F,,6- | F,,6 | C,6 | C,6 | (B,,6 | A,,6) | (D,2 E,2) F,2 | F,6 | (C,2 D,2) E,2 | F,6 | %60
w: le|nacht,|_|heil-|'ge|nacht.|_|lieb' _ aus|gött-|li- * chen|mund,|
w: leh|nahcht,|_|heel-|geh|nahcht.|_|leeb _ ows|gohtt-|lee- * chin|moond,|
 (D,2 E,2) F,2 | F,4 F,2 | C,2 D,2 E,2 | F,6 | G,4 G,2 | B,3 G, E,2 | F,6- | F,6 | F,4 C,2 | %69
w: da _ uns|schlägt die|rett- en- de|stundt.|jes- us|in dei- ner|ge-|burt,|jes- us|
w: dah _ oons|shlaygt dee|rett- ehn- day|stundt.|jes- us|in die- ner|geh-|boort,|jes- us|
 C,4 C,2 | F,,6- | F,,6 |!mf! F,,4 F,,2 | F,,6 | F,,4 F,,2 | F,,6 | C,4 C,2 | C,6 | F,,4 F,,2 | %79
w: in ge-|burt.|_|si- lent|night,|ho- ly|night.|son of|god,|love's pure|
w: in geh-|boort.|_||||||||
 F,,6 | D,4 D,2 | F,3 E, D,2 | C,3 (D, C,2) | A,,6 | D,4 D,2 | F,3 E, (D,2 | C,3 D, C,2) | A,,6 | %88
w: light.|rad- iant|bea- ms from|thy ho- ly|face.|with the|dawn of re-|deem- * ing|grace.|
w: |||||||||
 G,4 G,2 | B,3 G, E,2 | F,6- | F,6 | (F,2 C,2) A,,2 | C,3 B,, G,,2 | F,,6- | F,,6 |] %96
w: jes- us|lord at thy|birth,|_|jes- * us|lord at thy|birth.|_|
w: ||||||||

